X:1
T:Title
%%score { 1 | 2 }
L:1/8
M:4/4
K:Bb
V:1 treble nm="Grand Piano"
V:2 bass 
V:1
 z4 z2[Q:1/4=106] F2 | [Fd]3 [^FB] [GB]>[EG] [GB]>[EG] | [DF]6 F2 | A3 G GF G>F | [DF]6 [DF]2 | %5
 [C=E]3 [EG] [EB]2 [Ed]2 | d3 c c2 [A,=EA]2 | [A,DF]3 [DFB] [DFB][=EA] [EA]>[EG] |[M:3/4] F6 | %9
[M:1/4] F2 |[M:4/4] e3 G A2 G2 | [DF]2 [Fd]4 [Fd]2 | [^Fd]3 [FA] [FA][Ac] [GB]>[FA] | %13
 [GB]6 [_AB]2 | [GB]3 G G2 [GB]2 | [Fd]3 [DB] [DF]2 [Ge]2 | %16
 d3 B d>B c>[DB][Q:1/4=104][Q:1/4=103][Q:1/4=101][Q:1/4=100][Q:1/4=98][Q:1/4=97][Q:1/4=95][Q:1/4=94][Q:1/4=92][Q:1/4=90][Q:1/4=89][Q:1/4=87][Q:1/4=86][Q:1/4=84][Q:1/4=83][Q:1/4=81] | %17
[M:7/4] [DB]6 z2 z2 z4 |[M:1/4] B2 |[M:4/4] B3 G [B,EG]2 [B,EB]2 |[M:3/4] [B,DF]6 |] %21
V:2
 z4 z2 F,2 | [B,,B,]3 [D,B,] [E,B,]>[E,B,] [E,E]>[E,B,] | [B,,B,]6 [D,B,]2 | %3
 [F,CE]3 [F,B,E] [F,B,E][F,B,E] [F,A,E]>[F,A,E] | [B,,B,]6 [B,,B,]2 | %5
 [C,B,]3 [C,A,] [C,G,]2 [C,B,]2 | [F,A,F]3 [F,A,F] [F,A,F]2 C,2 | D,3 G,, G,,[C,C] [C,C]>[C,B,] | %8
[M:3/4] [F,A,]6 |[M:1/4] [F,A,]2 |[M:4/4] [F,A,F]3 [F,B,E] [F,CE]2 [F,A,E]2 | %11
 [B,,B,]2 [B,,B,]2 [B,,B,]2 [B,,B,]2 | [D,A,]3 [D,D] [D,D][D,D] [D,D]>[D,D] | [G,D]6 [F,D]2 | %14
 [E,E]3 [E,B,] [E,B,]2 [E,B,]2 | [B,,B,]3 [B,,B,] [B,,B,]2 [E,B,]2 | %16
 [F,B,F]3 [F,B,D] [F,B,F]>[F,B,D] [F,A,E]>[B,,B,] |[M:7/4] [B,,B,]6 z2 z2 z4 |[M:1/4] [F,_A,D]2 | %19
[M:4/4] [E,G,E]3 [E,B,E] B,,2 G,,2 |[M:3/4] B,,6 |] %21

